X: 1
T: Dukie's
M: 4/4
L: 1/8
R: hornpipe
K: Amaj
ABcd eaed|cecE BAFA|E2AB cefe|c'bba b2ab|
c'bba faea|fece BAFA|EFAB cef2|ecBc A4:|
K: Amin
|:ABcd eEdE|cEBE AcGc|EGAB cdef|ea^gb a3b|
(3c'ba (3bag (3age (3ged|(3ege (3ded (3cdc Bc|ABcd eged|ceBc A4:|
